static/img/kroki/beb757840d2268913041b617492ff182.svg

<?xml version="1.0" encoding="us-ascii" standalone="no"?><svg xmlns="http://www.w3.org/2000/svg" xmlns:xlink="http://www.w3.org/1999/xlink" contentStyleType="text/css" height="152px" preserveAspectRatio="none" style="width:803px;height:152px;" version="1.1" viewBox="0 0 803 152" width="803px" zoomAndPan="magnify"><defs/><g><!--class azure_network_express_route_circuit--><g id="elem_azure_network_express_route_circuit"><rect codeLine="23" fill="#3D176E" height="39.7891" id="azure_network_express_route_circuit" rx="2.5" ry="2.5" style="stroke:#000D19;stroke-width:0.5;" width="353" x="204.5" y="7"/><ellipse cx="219.5" cy="26.8945" fill="#ADD1B2" rx="11" ry="11" style="stroke:#181818;stroke-width:1.0;"/><path d="M222.4688,32.5352 Q221.8906,32.832 221.25,32.9727 Q220.6094,33.1289 219.9063,33.1289 Q217.4063,33.1289 216.0781,31.4883 Q214.7656,29.832 214.7656,26.707 Q214.7656,23.582 216.0781,21.9258 Q217.4063,20.2695 219.9063,20.2695 Q220.6094,20.2695 221.25,20.4258 Q221.9063,20.582 222.4688,20.8789 L222.4688,23.5977 Q221.8438,23.0195 221.25,22.7539 Q220.6563,22.4727 220.0313,22.4727 Q218.6875,22.4727 218,23.5508 Q217.3125,24.6133 217.3125,26.707 Q217.3125,28.8008 218,29.8789 Q218.6875,30.9414 220.0313,30.9414 Q220.6563,30.9414 221.25,30.6758 Q221.8438,30.3945 222.4688,29.8164 L222.4688,32.5352 Z " fill="#000000"/><text fill="#D9B8FF" font-family="Helvetica" font-size="17" lengthAdjust="spacing" textLength="311" x="238.5" y="32.7798">azure_network_express_route_circuit</text></g><!--class azure_network_express_route_port--><g id="elem_azure_network_express_route_port"><rect codeLine="26" fill="#3D176E" height="39.7891" id="azure_network_express_route_port" rx="2.5" ry="2.5" style="stroke:#000D19;stroke-width:0.5;" width="336" x="7" y="106.79"/><ellipse cx="22" cy="126.6845" fill="#ADD1B2" rx="11" ry="11" style="stroke:#181818;stroke-width:1.0;"/><path d="M24.9688,132.3252 Q24.3906,132.622 23.75,132.7627 Q23.1094,132.9189 22.4063,132.9189 Q19.9063,132.9189 18.5781,131.2783 Q17.2656,129.622 17.2656,126.497 Q17.2656,123.372 18.5781,121.7158 Q19.9063,120.0595 22.4063,120.0595 Q23.1094,120.0595 23.75,120.2158 Q24.4063,120.372 24.9688,120.6689 L24.9688,123.3877 Q24.3438,122.8095 23.75,122.5439 Q23.1563,122.2627 22.5313,122.2627 Q21.1875,122.2627 20.5,123.3408 Q19.8125,124.4033 19.8125,126.497 Q19.8125,128.5908 20.5,129.6689 Q21.1875,130.7314 22.5313,130.7314 Q23.1563,130.7314 23.75,130.4658 Q24.3438,130.1845 24.9688,129.6064 L24.9688,132.3252 Z " fill="#000000"/><text fill="#D9B8FF" font-family="Helvetica" font-size="17" lengthAdjust="spacing" textLength="294" x="41" y="132.5698">azure_network_express_route_port</text></g><!--class azure_network_express_route_ports_location--><g id="elem_azure_network_express_route_ports_location"><rect codeLine="29" fill="#3D176E" height="39.7891" id="azure_network_express_route_ports_location" rx="2.5" ry="2.5" style="stroke:#000D19;stroke-width:0.5;" width="419" x="377.5" y="106.79"/><ellipse cx="392.5" cy="126.6845" fill="#ADD1B2" rx="11" ry="11" style="stroke:#181818;stroke-width:1.0;"/><path d="M395.4688,132.3252 Q394.8906,132.622 394.25,132.7627 Q393.6094,132.9189 392.9063,132.9189 Q390.4063,132.9189 389.0781,131.2783 Q387.7656,129.622 387.7656,126.497 Q387.7656,123.372 389.0781,121.7158 Q390.4063,120.0595 392.9063,120.0595 Q393.6094,120.0595 394.25,120.2158 Q394.9063,120.372 395.4688,120.6689 L395.4688,123.3877 Q394.8438,122.8095 394.25,122.5439 Q393.6563,122.2627 393.0313,122.2627 Q391.6875,122.2627 391,123.3408 Q390.3125,124.4033 390.3125,126.497 Q390.3125,128.5908 391,129.6689 Q391.6875,130.7314 393.0313,130.7314 Q393.6563,130.7314 394.25,130.4658 Q394.8438,130.1845 395.4688,129.6064 L395.4688,132.3252 Z " fill="#000000"/><text fill="#D9B8FF" font-family="Helvetica" font-size="17" lengthAdjust="spacing" textLength="377" x="411.5" y="132.5698">azure_network_express_route_ports_location</text></g><!--link azure_network_express_route_circuit to azure_network_express_route_port--><g id="link_azure_network_express_route_circuit_azure_network_express_route_port"><path codeLine="32" d="M340.3,47.22 C304.19,64.36 257.1198,86.696 221.0298,103.836 " fill="none" id="azure_network_express_route_circuit-to-azure_network_express_route_port" style="stroke:#1A83AF;stroke-width:2.0;"/><polygon fill="#1A83AF" points="215.61,106.41,225.4557,106.1622,220.1265,104.265,222.0237,98.9358,215.61,106.41" style="stroke:#1A83AF;stroke-width:2.0;"/></g><!--link azure_network_express_route_circuit to azure_network_express_route_ports_location--><g id="link_azure_network_express_route_circuit_azure_network_express_route_ports_location"><path codeLine="33" d="M421.7,47.22 C457.81,64.36 504.8802,86.696 540.9702,103.836 " fill="none" id="azure_network_express_route_circuit-to-azure_network_express_route_ports_location" style="stroke:#1A83AF;stroke-width:2.0;"/><polygon fill="#1A83AF" points="546.39,106.41,539.9763,98.9358,541.8735,104.265,536.5443,106.1622,546.39,106.41" style="stroke:#1A83AF;stroke-width:2.0;"/></g><!--SRC=[hP9DIyD048Rl-HKBFHSQYxQz2B5Gz5B4UXC9qztPTaco6sOdrbRyxxR6ZpMn7uBNUP-TUMROfL4ei2XvBGeivaW-yfcn9H0K8Y5ogx7B7OcErg3xWsOuSPQF0bCeK5nZ_eHi93I9-wMHcKNlnLaGNO7C5kGgg-hsJ63zDaBB0JNEmVk4cSoyOWnar6W-rBf9Dfjs-YeUN60BSwIGFf1UhwVYKHCvEkhWtb_4p6nGnE7HfewnfTaQyKuTjDmHWMHhqSzyh-CjA6NiGfm7jRlQYIpIZ_fi2SgjThI6t8TZF2EXutM9uzPME1egFVWLlja7Ht9tEW6RYZ2ro2j7MOhF9Mt_Jxhb6LDfI5Q6nKiKlPw0bux-nFeqTnBOE5k_EaMb-z29as4_cJnsBuyE-F-EtyhH6m00]--></g></svg>

<svg xmlns="http://www.w3.org/2000/svg" width="803" height="152" viewBox="0 0 803 152"><rect width="353" height="39.789" x="204.5" y="7" fill="#3D176E" rx="2.5" ry="2.5" style="stroke:#000d19;stroke-width:.5"/><circle cx="219.5" cy="26.895" r="11" fill="#ADD1B2" style="stroke:#181818;stroke-width:1"/><path d="M222.469 32.535q-.578.297-1.219.438-.64.156-1.344.156-2.5 0-3.828-1.64-1.312-1.657-1.312-4.782t1.312-4.781q1.328-1.656 3.828-1.656.703 0 1.344.156.656.156 1.219.453v2.719q-.625-.578-1.219-.844-.594-.281-1.219-.281-1.344 0-2.031 1.078-.687 1.062-.687 3.156t.687 3.172q.688 1.062 2.031 1.062.625 0 1.219-.265.594-.281 1.219-.86z"/><text x="238.5" y="32.78" fill="#D9B8FF" font-family="Helvetica" font-size="17" textLength="311">azure_network_express_route_circuit</text><rect width="336" height="39.789" x="7" y="106.79" fill="#3D176E" rx="2.5" ry="2.5" style="stroke:#000d19;stroke-width:.5"/><circle cx="22" cy="126.684" r="11" fill="#ADD1B2" style="stroke:#181818;stroke-width:1"/><path d="M24.969 132.325q-.578.297-1.219.438-.64.156-1.344.156-2.5 0-3.828-1.64-1.312-1.657-1.312-4.782t1.312-4.781q1.328-1.656 3.828-1.656.703 0 1.344.156.656.156 1.219.453v2.719q-.625-.579-1.219-.844-.594-.281-1.219-.281-1.343 0-2.031 1.078-.687 1.062-.687 3.156t.687 3.172q.688 1.062 2.031 1.062.625 0 1.219-.265.594-.281 1.219-.86z"/><text x="41" y="132.57" fill="#D9B8FF" font-family="Helvetica" font-size="17" textLength="294">azure_network_express_route_port</text><rect width="419" height="39.789" x="377.5" y="106.79" fill="#3D176E" rx="2.5" ry="2.5" style="stroke:#000d19;stroke-width:.5"/><circle cx="392.5" cy="126.684" r="11" fill="#ADD1B2" style="stroke:#181818;stroke-width:1"/><path d="M395.469 132.325q-.578.297-1.219.438-.64.156-1.344.156-2.5 0-3.828-1.64-1.312-1.657-1.312-4.782t1.312-4.781q1.328-1.656 3.828-1.656.703 0 1.344.156.656.156 1.219.453v2.719q-.625-.579-1.219-.844-.594-.281-1.219-.281-1.344 0-2.031 1.078-.687 1.062-.687 3.156t.687 3.172q.688 1.062 2.031 1.062.625 0 1.219-.265.594-.281 1.219-.86z"/><text x="411.5" y="132.57" fill="#D9B8FF" font-family="Helvetica" font-size="17" textLength="377">azure_network_express_route_ports_location</text><path fill="none" d="M340.3 47.22c-36.11 17.14-83.18 39.476-119.27 56.616" style="stroke:#1a83af;stroke-width:2"/><path fill="#1A83AF" d="m215.61 106.41 9.846-.248-5.33-1.897 1.898-5.33z" style="stroke:#1a83af;stroke-width:2"/><path fill="none" d="M421.7 47.22c36.11 17.14 83.18 39.476 119.27 56.616" style="stroke:#1a83af;stroke-width:2"/><path fill="#1A83AF" d="m546.39 106.41-6.414-7.474 1.898 5.329-5.33 1.897z" style="stroke:#1a83af;stroke-width:2"/></svg>
